X:1
T:Gathering, CMD
T:Gathering, CMD
T:James Henry Fillmore, Sr., 1890
T:Public Domain Courtesy of the Cyber Hymnal™
C:James Henry Fillmore, Sr., 1890
Z:Public Domain
Z:Courtesy of the Cyber Hymnal™
%%score ( 1 2 ) ( 3 4 )
L:1/8
Q:1/4=108
M:4/4
K:Bb
V:1 treble 
V:2 treble 
V:3 bass 
V:4 bass 
V:1
 [DF]2 | [Fd]3 [Fd] ([Ec][DB]) ([FA][EG]) | [DF]2 ([B,D]>[CE]) [DF]2 [DF]2 | %3
 [EG]2 [EA]2 [FB]2 [Gc]2 | (B4 A2) F2 | [Fd]3 [Fd] ([Ec][DB]) ([FA][EG]) | %6
 [DF]2 ([B,D]>[CE]) [DF]2 [DF]2 | [EG]2 [Ec]2 [DB]2 [CA]2 | [DB]6 [DB]2 | [Ec]3 [D=B] [Ec]2 [Ge]2 | %10
 ([Fd][Ec]) ([DB][Ec]) [Fd]2 [Fd]2 | [Fc]2 [FA]2 [GB]2 [=EG]2 | [FA]6 F2 | %13
 [Fd]3 [Fd] (cB) ([FA][EG]) | [DF]2 ([B,D]>[CE]) [DF]2 [DF]2 | [EG]2 [Gc]2 [FB]2 [FA]2 | [FB]6 |] %17
V:2
 x2 | x8 | x8 | x8 | F6 F2 | x8 | x8 | x8 | x8 | x8 | x8 | x8 | x6 F2 | x4 G2 x2 | x8 | x8 | x6 |] %17
V:3
 [B,,B,]2 | [B,,B,]3 [B,,B,] [B,,B,]2 [B,,B,]2 | [B,,B,]2 [B,,F,]2 [B,,B,]2 [B,,B,]2 | %3
 [E,B,]2 [C,C]2 [D,B,]2 [E,E]2 | (D4 C2) [F,A,]2 | [B,,B,]3 [B,,B,] [B,,B,]2 [B,,B,]2 | %6
 [B,,B,]2 [B,,F,]2 [B,,B,]2 [B,,B,]2 | [E,B,]2 [E,G,]2 F,2 F,2 | [B,,F,]6 [B,,B,]2 | %9
 [F,A,]3 [F,^G,] [F,A,]2 [F,A,]2 | [B,,B,]2 [B,,B,]2 [B,,B,]2 [B,,B,]2 | %11
 [C,A,]2 [C,C]2 [C,C]2 [C,C]2 | [F,C]6 [F,A,]2 | [B,,B,]3 [B,,B,] [E,B,]2 [E,B,]2 | %14
 [B,,B,]2 [B,,F,]2 [B,,B,]2 [B,,B,]2 | [E,B,]2 [C,E]2 [F,D]2 [F,C]2 | [B,,D]6 |] %17
V:4
 x2 | x8 | x8 | x8 | F,6 x2 | x8 | x8 | x4 F,2 F,2 | x8 | x8 | x8 | x8 | x8 | x8 | x8 | x8 | x6 |] %17

